!!!!SEGMENT: pl-wtm--a-40-963-95_karasinski-adam-jozef--tango-messal.krn
!!!cenid: 19xx:54
!!!COM: Karasiński, Adam Józef
!!!COM-rismID: pe50045321
!!!CDT: 1868-1920
!!!CNT: Polish
!!!OTL: Tango Messal
!!!PDT:
!!!AGN: Secular
!!!YEC: Copyright 2022 Narodowy Instytut Fryderyka Chopina (https://polishscores.org)
!!!YEM: License CC-BY-4.0 (https://creativecommons.org/licenses/by/4.0)
!!!SMS-siglum: PL-Wtm
!!!SMS-shelfmark: A.40.963-95
!!!SMS-variant:
!!!SMS-altvar:
!!!SMS-shelfwork: W
!!!NIFC-rismSourceID: 1001155295
!!!NIFC-rismChildID: 1001155295
!!!NIFC-islandoraID: pl-wtm:68600
!!!URL-pdf-islandora: https://repozytorium.nifc.pl/islandora/object/pl-wtm%3A68600/datastream/PDF/view
!!!URL-scan: https://polish.musicsources.pl/pl/lokalizacje/galeria/druki-muzyczne/22093/3 @EN{Scan on Polish Music Sources Website} @PL{Skany w portalu Dziedzictwo Muzyki Polskiej w otwartym dostępie}
!!!IIIF:
!!!ONB-nifc:
!!!OMD: Moderato.
!!!AIN: 1 piano
!!!key:
**kern	**kern	**dynam
*part1	*part1	*part1
*staff2	*staff1	*
*I"PIANO.	*	*
*Ipiano	*	*
*ICklav	*	*
*clefF4	*clefG2	*
*k[f#c#]	*k[f#c#]	*
*D:	*D:	*
*M2/4	*M2/4	*
*>[A,B,B,A,B,B]	*>[A,B,B,A,B,B]	*
=1	=1	=1
*>A	*>A	*
16A\KL	16a\KL	ff
8B^\	8b^\	.
16c#\Jk	16cc#\Jk	.
4d^\	4dd^\	.
=2	=2	=2
16d\KL	16dd\KL	.
8d^\	8dd^\	.
16c#\Jk	16cc#\Jk	.
16d\LL	16dd\LL	.
16c#\	16cc#\	.
16d\	16dd\	.
16e\JJ	16ee\JJ	.
=3	=3	=3
16f#\KL	16ff#\KL	.
8g^\	8gg^\	.
16c#\Jk	16cc#\Jk	.
4f#;\	4ff#;\	.
=4	=4	=4
16FF#/KL	2r	pp
8GG^/	.	.
16CC#/Jk	.	.
4FF#;/	.	.
=5	=5	=5
8.EE\L	16ff#\KL	p
!	!LO:TX:b:t=dolce	!
.	8gg\	.
16E\K	16cc#\Jk	.
8G\ 8B 8c#	[4ee\	.
8BB\J	.	.
!!LO:LB:g=original
=6	=6	=6
8.AA#X\L	8ee\L]	.
!	!LO:TX:t=P:problem:klamra łukowa	!
!	!LO:TUP:a	!
.	24f#\L	.
.	24a#X\	.
16F#\K	.	.
.	24cc#\JJ	.
8A#X\ 8e	16cc#\LL 16ee	.
.	16cc#\ 16ee	.
8F#\J	16b\ 16dd	.
.	16a#X\JJ 16cc#	.
=7	=7	=7
8.BB\L	16ee#X\KL	.
.	8ff#^\	.
16F#\K	16b\Jk	.
8G\ 8B	[4dd\	.
8FF#\J	.	.
=8	=8	=8
8.BB\L	8dd\L]	.
.	16b\L	.
16F#\K	16cc#\JJ	.
!	!LO:TX:t=P:problem:klamra łukowa	!
!	!LO:TUP:a	!
8B\ 8d	24dd\LL	.
.	24ee\	.
.	24dd\J	.
8FF#\J	16cc#\L	.
.	16b\JJ	.
=9	=9	=9
8.EE\L	16dd\KL	.
.	8cc#^\	.
16E\K	16b\Jk	.
8G\ 8B 8c#	[4g^/	.
8EE\J 8E	.	.
=10	=10	=10
8.AA#X\L	8g/L]	.
.	16f#/L	.
16F#\K	16f#/JJ	.
!LO:SIC:v:s:n=1:8A#\	!	!
8A\ 8e	16g#X/LL	.
.	16g#/	.
8FF#\J	16a#X/	.
.	16a#/JJ	.
!!LO:LB:g=original
=11	=11	=11
8.BB\L	16b\KL	.
.	8dd^\	.
16F#\K	16ee#X\Jk	.
8G\ 8B	[4ff#^\	.
8FF#\J	.	.
=12	=12	=12
8.BB\L	8ff#\L]	.
.	(16b\L	.
16F#\K	16dd\JJ)	.
(8B^\	16ff#\LL	.
.	16ff#\	.
8A#X\J)	16gg\	.
.	16gg#X\JJ	.
=13	=13	=13
8.EE\L 8.E	16a\KL 16cc# 16gg 16aa	mf
.	8bb^\	.
16G\K	16ee\Jk	.
8A\ 8c# 8e	[4a^\ [4cc# [4gg	.
8AA\J	.	.
=14	=14	=14
8.EE\L 8.E	8a\L] 8cc#] 8gg]	.
!	!LO:TX:t=P:problem:klamra łukowa	!
!	!LO:TUP:a	!
.	24a\L	.
.	24cc#\	.
16G\K	.	.
.	24ee\JJ	.
8A\ 8c# 8e	16ee\LL 16gg	.
.	16ee\ 16gg	.
8AA\J	16dd#X\ 16ff#	.
.	16ee\JJ 16gg	.
=15	=15	=15
8.DD\L 8.D	16ee#X\KL 16gg#X	.
.	8ff#^\ 8aa	.
16F#\K	16dd\Jk	.
8A\ 8d	[4dd\ [4ff#	.
8AA\J	.	.
!!LO:LB:g=original
=16	=16	=16
8.DD\L 8.D	8dd\L] 8ff#]	.
.	(16a\L	.
16F#\K	16dd\JJ)	.
8A\ 8d	16ff#\LL	.
.	16ff#\	.
8AA\J	16ee#X\	.
.	16ff#\JJ	.
=17	=17	=17
8.CC#\L 8.C#	(16ff#\LL	.
!	!	!LO:HP:t=crescendo
.	16ee#X\)	<
.	(16ee#\	.
16E#X\K	16gg#X\JJ)	.
8G\ 8B 8c#	(16gg#\LL	.
.	16bb\)	.
8C#\J	(16bb\	.
.	16ddd\JJ)	.
=18	=18	=18
8.CC#\L 8.C#	16ddd\LL	.
.	16ccc#\J	.
.	8ccc#\J	.
16G#X\K	.	.
8B\ 8c# 8e#X	16r	.
.	16ccc#\LL	.
8G#\J	16bb\	.
.	16ccc#\JJ	.
=19	=19	=19
8.FF#\L 8.F#	16ddd\KL	.
.	8ccc#^\	.
16A\K	16bb#X\Jk	.
8c#\ 8f#	4ccc#^\	.
8A\J	.	.
=20	=20	=20
8.EE\L 8.E	8r	.
.	16cc#\LL 16aa 16ccc#	.
16A\K	16cc#\JJ 16aa 16ccc#	.
8c#\ 8g	16b\LL 16gg 16bb	.
.	16b\ 16gg 16bb	.
8A\J	16a\ 16gg 16aa	.
.	16a\JJ 16gg 16aa	.
!!LO:LB:g=original
=21||	=21||	=21||
8.DD/L	16A^/KL 16a	f
.	8B/ 8b	.
16AA/K	16c#/Jk 16cc#	.
8F#/	4d^/ 4f# 4dd	.
8AA/J	.	.
=22	=22	=22
8.DD/L	16d/KL 16f# 16dd	.
.	8d^/ 8f# 8dd	.
16AA/K	16c#/Jk 16cc#	.
8F#/	16d/LL 16dd	.
.	16c#/ 16cc#	.
8AA/J	16d/ 16dd	.
.	16e/JJ 16ee	.
=23	=23	=23
8.EE/L	16d/KL 16b 16dd	.
.	8c#^/ 8a 8cc#	.
16AA/K	16B#X/Jk 16b#X	.
8G/	[4c#^/ [>4a [4cc#	.
8AA/J	.	.
=24	=24	=24
*	*^	*
!	!LO:N:vis=2	!	!
8.AAA\L	8cc#/L	2c#\] 2a] 2cc#]	.
.	16b/L 16gg 16bb	.	p
16A\K	16b/JJ 16gg 16bb	.	.
8c#\ 8g	16b/LL 16gg 16bb	.	.
.	16b/ 16gg 16bb	.	.
8A\J	16b/ 16gg 16bb	.	.
.	16b/JJ 16gg 16bb	.	.
*	*v	*v	*
=25	=25	=25
8.EE\L	16d/KL 16b 16dd	f
.	8c#^/ 8cc#	.
16AA\K	16A#X/Jk 16a#X	.
!	!LO:TX:t=P:problem=brak rozpoczęcia ligatur	!
8G\	[4B^/ [>4g [4b	.
8AA\J	.	.
!!LO:PB:g=original
=26	=26	=26
*	*^	*
!	!LO:N:vis=2	!	!
8.AAA\L	8b/L	2B\] 2g] 2b]	.
.	16cc#/L 16gg	.	p
16A\K	16cc#/JJ 16gg	.	.
8c#\ 8g	16a/LL 16cc# 16gg	.	.
.	16a/ 16cc# 16gg	.	.
8A\J	16a/ 16cc# 16gg	.	.
.	16a/JJ 16cc# 16gg	.	.
*	*v	*v	*
=27	=27	=27
8.DD/L	16c#/KL 16f# 16cc#	f
.	8B^/ 8b	.
16AA/K	16G#X/Jk 16g#X	.
8F#/	[4A/ [>4f# [4a	.
8AA/J	.	.
=28	=28	=28
*	*^	*
!	!LO:N:vis=2	!	!
8.DD/L	8a/L	2A\] 2f#] 2a]	.
.	16dd/L 16ff#	.	p
16F#/K	16dd/JJ 16ff#	.	.
8A/ 8d	16a/LL 16dd 16ff#	.	.
.	16a/ 16dd 16ff#	.	.
8AA/J	16a/ 16dd 16ff#	.	.
.	16a/JJ 16dd 16ff#	.	.
*	*v	*v	*
=29	=29	=29
8.DD/L	16A/KL 16a	f
.	8B^/ 8b	.
16AA/K	16c#/Jk 16cc#	.
8F#/	4d^/ 4f# 4dd	.
8AA/J	.	.
=30	=30	=30
8.DD/L	16d/KL 16f# 16dd	.
.	8d^/ 8f# 8dd	.
16AA/K	16c#/Jk 16cc#	.
8F#/	16d/LL 16dd	.
.	16c#/ 16cc#	.
8AA/J	16d/ 16dd	.
.	16e/JJ 16ee	.
!!LO:LB:g=original
=31	=31	=31
8.CC#\L 8.C#	16d/KL 16dd	.
.	8c#/ 8cc#	.
16F#\K	16B#X/Jk 16b#X	.
8A\	[4c#^>/ [4cc#	.
8F#\J	.	.
=32	=32	=32
*	*^	*
!	!LO:N:vis=2	!	!
8.CC#\L 8.C#	8cc#/L	2c#\] 2cc#]	.
.	16aa/L 16ccc#	.	p
16A\K	16aa/JJ 16ccc#	.	.
8c#\ 8f#	16ff#/LL 16aa	.	.
.	16ff#/ 16aa	.	.
8d\J	16dd/ 16ff#	.	.
.	16dd/JJ 16ff#	.	.
*	*v	*v	*
=33	=33	=33
8.CC#\L 8.C#	16cc#\KL	.
.	8ff#\	.
16A\K	16gg#X\Jk	.
8c#\ 8f#	4aa^\	.
8F#\J	.	.
=34	=34	=34
.	16qqaa/LL	.
.	16qqbb/JJ	.
!	!	!LO:HP:t=diminuendo
8.CC#\L 8.C#	8ccc#\	>
.	8r	.
16A\K	.	.
.	(16qqccc#/LL	.
.	16qqddd/JJ	.
8c#\ 8f#	8eee\)	.
8F#\J	8r	.
=35	=35	=35
.	(16qqeee/LL	.
.	16qqddd/JJ	.
8.CC#\L 8.C#	8ccc#\)	.
.	8r	.
16G#X\K	.	.
.	(16qqccc#/LL	.
.	16qqbb/JJ	.
8B\ 8c# 8e#X	(8.gg#X\L)	.
8C#\J	.	.
.	16aa\Jk	.
!!LO:LB:g=original
=36	=36	=36
8A\ 8c# 8f#	8ff#\)	.
8r	8r	.
4E;:\ 4A: 4c#: 4g:	4a;:\ 4cc#: 4aa:	.
=37!|:	=37!|:	=37!|:
*>B	*>B	*
8.DD^/L	16f#/KL 16dd	pp
.	8d^/ 8b	.
16AA/K	16a/Jk	.
8F#/	[4d/ [4f#	.
8AA/J	.	.
=38	=38	=38
8.DD^/L	8d/L] 8f#]	.
.	16d/L	.
16AA/K	16d/JJ	.
8F#/	16e/LL	.
.	16d/	.
8AA/J	16e/	.
.	16f#/JJ	.
=39	=39	=39
8.EE^/L	16c#/KL 16a	.
.	8c#^/ 8a	.
16AA/K	16A/Jk 16f#	.
8G/	[4c#^/ [4a	.
8AA/J	.	.
=40	=40	=40
8.AAA^/L	8.c#/L] 8.a]	.
16AA/K	16A/Jk 16f#	.
8G/	8c#/L 8a	.
8E/J	8B/J 8g	.
!!LO:LB:g=original
=41	=41	=41
8.AAA\L	16A\KL 16f#	.
.	8cc#^\ 8aa	.
16A\K	16a\Jk 16ff#	.
8c#\ 8e	[4g\ [4ee	.
8A\J	.	.
=42	=42	=42
8AA\L	8g\L] 8ee]	.
8A\	16f#\L 16dd#X	.
.	16f#\JJ 16dd#	.
8c#\ 8e	16g\LL 16ee	.
.	16g\ 16ee	.
8A\J	16a\ 16ff#	.
.	16a\JJ 16ff#	.
=43	=43	=43
8.DD^/L	16f#/KL 16dd	.
.	8f#^/ 8dd	.
16AA/K	16d/Jk 16b	.
8F#/	[4d/ [4a	.
8AA/J	.	.
=44	=44	=44
8.DD^/L	8d/L] 8a]	.
.	16a/L 16ff#	.
16AA/K	16a/JJ 16ff#	.
8F#/	16f#/LL 16dd	.
.	16f#/ 16dd	.
8AA/J	16g/ 16ee	.
.	16g/JJ 16ee	.
!!LO:LB:g=original
=45	=45	=45
8.DD/L	16f#/KL 16dd	.
.	8d^/ 8b	mf
16AA/K	16a/Jk	.
8F#/	[4d/ [4f#	.
8AA/J	.	.
=46	=46	=46
8.DD^/L	8d/L] 8f#]	.
.	16d/L	.
16D/K	16d/JJ	.
8C#/	16e/LL	.
.	16d/	.
8Cn/J	16e/	.
.	16f#/JJ	.
=47	=47	=47
8.EE/L	16B/KL 16f#	.
.	8e/ 8g	.
16BB/K	16f#/Jk 16a	.
8G/	[4g^/ [4b	.
8BB/J	.	.
=48	=48	=48
8.EE\L	8g/L] 8b]	.
.	16g/L 16b	.
16G\K	16g/JJ 16b	.
8B\ 8e	16g\LL 16b 16ee	.
.	16g\ 16b 16ee	.
8B-X\J	16g\ 16b-X 16gg	.
.	16g\JJ 16b- 16gg	.
!!LO:LB:g=original
=49	=49	=49
8.AA\L	16f#/KL 16a 16ff#	f
.	8f#^/ 8a 8ff#	.
16A\K	16e#X/Jk 16ee#X	.
8d\	16f#/LL 16ff#	.
.	16e#/ 16ee#	.
8A\J	16f#/ 16ff#	.
.	16g/JJ 16gg	.
=50	=50	=50
8.AA\L	16e/KL 16g 16ee	.
.	8e/ 8g 8ee	.
16A\K	16d#X/Jk 16f# 16dd#X	.
8G\ 8c#	8e/L 8g 8ee	.
8A\J	8f#/J 8a 8ff#	.
=51	=51	=51
8.DD\L 8.D	16d/KL 16f# 16dd	.
.	8d^/ 8f# 8dd	.
16B^\K	16d/Jk 16f# 16dd	.
8A^\	8d/L 8f# 8dd	.
8F#^\J	8d/J 8f# 8dd	.
=52	=52	=52
8D\	8f#/ 8dd	.
8r	8r	.
8DD^^/ 8D	8dd^^\ 8ff# 8ddd	.
!	!LO:TX:b:t=Fine.	!
8r	8r	.
=:|!	=:|!	=:|!
*-	*-	*-
!!!system-decoration: {(s1,s2)}
!!!RDF**kern: < = below
!!!RDF**kern: > = above
!!!ENC: Andrzej Gręziak
!!!END: 2023-09-08
!!!ENC: Marta Chmielewska
!!!END: 2023-09-26
